!!!!SEGMENT: pl-cz--ii-40--002_brioschi-antonio--partita-b-menuett.krn
!!!cenid: 18xx:2475
!!!COM: Brioschi, Antonio
!!!COM-rismID: pe30000488
!!!CDT: <~1725-1750
!!!CNT: Italian
!!!OPR: Partita B
!!!OTL: Menuett
!!!OMV: 002
!!!PDT: 1800
!!!AGN: Secular; Partita
!!!SMS-siglum: PL-CZ
!!!SMS-shelfmark: II-40
!!!SMS-shelfwork: 001-002 M
!!!SMS-variant:
!!!SMS-altvar:
!!!NIFC-rismSourceID: 300000049
!!!NIFC-islandoraID: pl-cz:8393
!!!URL-pdf-islandora: https://repozytorium.nifc.pl/islandora/object/pl-cz%3A8393/datastream/PDF/view
!!!URL-scan: https://polish.musicsources.pl/pl/lokalizacje/galeria/rekopisy/915 @EN{Scan on Polish Music Herritage in Open Access Website} @PL{Skany w portalu Dziedzictwo Muzyki Polskiej w otwartym dostępie}
!!!ONB-nifc: UWAGA: części Partity: 1. Allegro moderato, 2. Menuett, 3. Adagio, 4. Rondo
!!!OMD: Menuett.
!!!AIN: 2 clars 2 empty 2 fagot
!!!key:
**kern	**dynam	**kern	**dynam	**kern	**dynam	**kern	**dynam	**kern	**dynam	**kern	**dynam
*group2	*	*group2	*	*group1	*	*group1	*	*group1	*	*group1	*
*part6	*part6	*part5	*part5	*part4	*part4	*part3	*part3	*part2	*part2	*part1	*part1
*staff6	*	*staff5	*	*staff4	*	*staff3	*	*staff2	*	*staff1	*
*Iempty	*	*Iempty	*	*Ifagot	*	*Ifagot	*	*Iclars	*	*Iclars	*
*I"Cornu Secondo. in B.	*	*I"Cornu Primo. in B.	*	*I"Fagotto Secondo. in B.	*	*I"Fagotto Primo	*	*I"Clarinetto Secondo in B	*	*I"Clarinetto Primo in B.	*
*I'cor 2 in B|b	*	*I'cor 1 in B|b	*	*I'fag 2 in B|b	*	*I'fag 1	*	*I'cl 2 in B|b	*	*I'cl 1 in B|b	*
*>[A,A,B,B,C,C,D,D,A,A,B,B]	*>[A,A,B,B,C,C,D,D,A,A,B,B]	*>[A,A,B,B,C,C,D,D,A,A,B,B]	*>[A,A,B,B,C,C,D,D,A,A,B,B]	*>[A,A,B,B,C,C,D,D,A,A,B,B]	*>[A,A,B,B,C,C,D,D,A,A,B,B]	*>[A,A,B,B,C,C,D,D,A,A,B,B]	*>[A,A,B,B,C,C,D,D,A,A,B,B]	*>[A,A,B,B,C,C,D,D,A,A,B,B]	*>[A,A,B,B,C,C,D,D,A,A,B,B]	*>[A,A,B,B,C,C,D,D,A,A,B,B]	*>[A,A,B,B,C,C,D,D,A,A,B,B]
*>A	*>A	*>A	*>A	*>A	*>A	*>A	*>A	*>A	*>A	*>A	*>A
*clefG2	*	*clefG2	*	*clefF4	*	*clefF4	*	*clefG2	*	*clefG2	*
*ITrd1c2	*	*ITrd1c2	*	*	*	*	*	*ITrd1c2	*	*ITrd1c2	*
*k[b-e-]	*	*k[b-e-]	*	*k[b-e-]	*	*k[b-e-]	*	*k[b-e-]	*	*k[b-e-]	*
*B-:	*	*B-:	*	*B-:	*	*B-:	*	*B-:	*	*B-:	*
*M3/4	*	*M3/4	*	*M3/4	*	*M3/4	*	*M3/4	*	*M3/4	*
4r	.	4r	.	4r	.	4r	.	4f/	f	4ff\	.
=1	=1	=1	=1	=1	=1	=1	=1	=1	=1	=1	=1
!	!	!LO:TX:a:t=2	!	!	!	!	!LO:DY:rj	!	!	!	!
!LO:N:vis=0	!	!LO:N:vis=0	!	!	!	!	!	!	!	!	!
1.r	.	1.r	.	2BB-/	.	2BB-/	f	4b-\	.	4bb-\	.
.	.	.	.	.	.	.	.	4f/	.	4ff\	.
.	.	.	.	4C/	.	4C/	.	4f/	.	4ff\	.
=2	=2	=2	=2	=2	=2	=2	=2	=2	=2	=2	=2
.	.	.	.	4D/	.	4D/	.	4f/	.	4ff\	.
.	.	.	.	4C/	.	4C/	.	4f/	.	4ff\	.
.	.	.	.	4BB-/	.	4BB-/	.	4f/	.	4ff\	.
=3	=3	=3	=3	=3	=3	=3	=3	=3	=3	=3	=3
4r	.	4r	.	4E-/	.	4E-\	.	4g/	.	4aa\	.
4r	f	4r	.	4BB-/	.	4C/	.	4g/	.	4gg\	.
4f/	.	4cc\	.	4F\	.	4F\	.	4a/	.	4aa\	.
=4	=4	=4	=4	=4	=4	=4	=4	=4	=4	=4	=4
8.d/L	.	8.b-\L	.	4BB-/	.	4BB-/	.	4b-\	.	4bb-\	.
16d/Jk	.	16b-\Jk	.	.	.	.	.	.	.	.	.
4d/	.	4b-\	.	4r	.	4r	.	4r	.	4r	.
4r	.	4r	.	4r	.	4r	.	(16cc\LL	.	(16ee-\LL	.
.	.	.	.	.	.	.	.	16dd\	.	16ff\	.
.	.	.	.	.	.	.	.	16cc\	.	16ee-\	.
.	.	.	.	.	.	.	.	16b-\JJ)	.	16dd\JJ)	.
=5	=5	=5	=5	=5	=5	=5	=5	=5	=5	=5	=5
!	!	!	!	!LO:N:vis=0	!	!LO:N:vis=0	!	!	!	!	!
4f/	p	4cc'\	.	1.r	.	1.r	.	4a\	.	4cc\	.
4f/	.	4cc'\	.	.	.	.	.	4r	.	4r	.
4r	.	4r	.	.	.	.	.	(16dd\LL	.	(16ff\LL	.
.	.	.	.	.	.	.	.	16ee-\	.	16gg\	.
.	.	.	.	.	.	.	.	16dd\	.	16ff\	.
.	.	.	.	.	.	.	.	16cc\JJ)	.	16ee-\JJ)	.
=6	=6	=6	=6	=6	=6	=6	=6	=6	=6	=6	=6
4b-\	.	4dd\	.	.	.	.	.	4b-\	.	4dd\	.
4b-\	.	4dd\	.	.	.	.	.	4r	.	4r	.
4r	.	4r	.	.	.	.	.	4dd\	.	4ff\	.
=7	=7	=7	=7	=7	=7	=7	=7	=7	=7	=7	=7
4r	.	4r	.	4B-\	.	4B-\	.	4.dd\	.	4.bb-\	.
4r	.	4r	.	4G\	.	4G\	.	.	.	.	.
.	.	.	.	.	.	.	.	8b-\L	.	8gg\L	.
4cc\	.	4cc\	.	4c\	.	4c\	.	8a\	.	8ff\	.
.	.	.	.	.	.	.	.	8g\J	.	8eeX\J	.
=8	=8	=8	=8	=8	=8	=8	=8	=8	=8	=8	=8
4f/	.	4cc\	.	4F\	.	4F\	.	4b-\	.	4gg\	.
4f/	.	4cc\	.	4FF/	.	4FF/	.	4a\	.	4ff\	.
=:|!|:	=:|!|:	=:|!|:	=:|!|:	=:|!|:	=:|!|:	=:|!|:	=:|!|:	=:|!|:	=:|!|:	=:|!|:	=:|!|:
*>B	*>B	*>B	*>B	*>B	*>B	*>B	*>B	*>B	*>B	*>B	*>B
4r	.	4r	.	8F\L	.	8c\L	.	8a\L	.	(8cc\L	.
.	.	.	.	8B-\J	.	8d\J	.	8b-\J	.	8dd\J)	.
=9	=9	=9	=9	=9	=9	=9	=9	=9	=9	=9	=9
!LO:N:vis=00	!	!LO:N:vis=00	!	!	!	!	!	!	!	!	!
0.r	.	0.r	f	4.c\	.	4.e-\	.	4.cc\	.	4.ee-\	.
.	.	.	.	8B-\	.	8d\	.	8b-\	.	8dd\	.
.	.	.	.	4F\	.	4c\	.	4a\	.	4cc\	.
!	!	!	!	!	!	!	!	!LO:LB:g=original	!	!	!
=10	=10	=10	=10	=10	=10	=10	=10	=10	=10	=10	=10
.	.	.	.	4.B-\	.	4.d\	.	4.b-\	.	4.dd\	.
.	.	.	.	8F\	.	8c\	.	8f/	.	8cc\	.
.	.	.	.	4D\	.	4B-\	.	4d/	.	4b-\	.
!	!	!	!	!LO:LB:g=original	!	!LO:LB:g=original	!	!	!	!LO:LB:g=original	!
=11	=11	=11	=11	=11	=11	=11	=11	=11	=11	=11	=11
.	.	.	.	4F\	.	4c\	.	4a\	.	4cc\	.
.	.	.	.	8A\L	.	(8c\L	.	(8a\L	.	(8cc\L	.
.	.	.	.	8B-\	.	8d\	.	8b-\)	.	8dd\	.
.	.	.	.	8c\	.	8e-\	.	(8cc\	.	8ee-\	.
.	.	.	.	8B-\J	.	8d\J)	.	8b-\J)	.	8dd\J)	.
=12	=12	=12	=12	=12	=12	=12	=12	=12	=12	=12	=12
.	.	.	.	4B-\	.	4d\	.	4b-\	.	4dd\	.
.	.	.	.	4A\	.	4c\	.	4a\	.	4cc\	.
.	.	.	.	4r	.	4r	.	8dd\L	.	8ff\L	f
.	f	.	.	.	.	.	.	8cc\J	.	8ee-\J	.
=13	=13	=13	=13	=13	=13	=13	=13	=13	=13	=13	=13
*	*	*	*	*	*	*tremolo	*	*	*	*	*
!	!	!	!	!LO:TX:t=P:problem=mixed beam	!	!LO:TX:t=P:problem=mixed beam	!	!	!	!	!
8B-/L	.	8b-'\L	.	8BB-/L	.	8BB-/L	.	4b-\	.	4dd\	.
16B-/L	.	16b-'\L	.	8B-\	.	8B-\	.	.	.	.	.
16B-/JJ	.	16b-'\JJ	.	.	.	.	.	.	.	.	.
*	*	*tremolo	*	*	*	*	*	*	*	*	*
*	*	*2\right	*	*	*	*	*	*	*	*	*
!	!	!LO:TX:a:t=....	!	!	!	!	!	!	!	!	!
8B-/L	.	8b-'\L	.	8BB-/	.	8BB-/	.	4cc\	.	4ee-\	.
8B-/	.	8b-'\	.	8B-\	.	8B-\	.	.	.	.	.
8B-/	.	8b-'\	.	8BB-/	.	8BB-/	.	4dd\	.	4ff\	.
8B-/J	.	8b-'\J	.	8B-\J	.	8B-\J	.	.	.	.	.
=14	=14	=14	=14	=14	=14	=14	=14	=14	=14	=14	=14
*	*	*	*	*tremolo	*	*	*	*2\right	*	*	*
!	!	!	!	!LO:TX:t=P:problem=mixed beam	!	!LO:TX:t=P:problem=mixed beam	!	!	!	!	!
8B-/L	.	8b-'\L	.	8BB-/L	.	8BB-/L	.	2.ee-\	.	4.gg\	.
16B-/L	.	16b-'\L	.	8B-\	.	8B-\	.	.	.	.	.
16B-/JJ	.	16b-'\JJ	.	.	.	.	.	.	.	.	.
*tremolo	*	*	*	*	*	*	*	*	*	*	*
8B-/L	.	8b-'\L	.	8BB-/	.	8BB-/	.	.	.	.	.
8B-/	.	8b-'\	.	8B-\	.	8B-\	.	.	.	8bb-\L	.
8B-/	.	8b-'\	.	8BB-/	.	8BB-/	.	.	.	8ddd\	.
8B-/J	.	8b-'\J	.	8B-\J	.	8B-\J	.	.	.	8bb-\J	.
*Xtremolo	*	*Xtremolo	*	*Xtremolo	*	*Xtremolo	*	*	*	*	*
=15	=15	=15	=15	=15	=15	=15	=15	=15	=15	=15	=15
4B-/	.	4b-\	.	8BB-/L	.	8D\L	.	8dd\L	.	8ff\L	.
.	.	.	.	8E-/J	.	8E-\J	.	8cc\J	.	8ee-\J	.
4d/	.	4b-\	.	4F\	.	4F\	.	4b-\	.	4dd\	.
4f/	.	4cc\	.	4FF/	.	4FF/	.	4f/	.	4cc\	.
=	=	=	=	=	=	=	=	=	=	=	=
4f/	.	4cc\	.	4BB-/	.	4BB-/	.	4e-/	.	4cc\	.
4d/	.	4b-\	.	4BBB-/	.	4BBB-/	.	4d/	.	4b-\	.
!LO:LB:g=original	!	!LO:LB:g=original	!	!LO:LB:g=original	!	!LO:LB:g=original	!	!LO:LB:g=original	!	!LO:LB:g=original	!
=16:|!	=16:|!	=16:|!	=16:|!	=16:|!	=16:|!	=16:|!	=16:|!	=16:|!	=16:|!	=16:|!	=16:|!
!!!OMD: Trio
*>C	*>C	*>C	*>C	*>C	*>C	*>C	*>C	*>C	*>C	*>C	*>C
*M3/4	*	*M3/4	*	*M3/4	*	*M3/4	*	*M3/4	*	*M3/4	*
4r	p	4r	.	4r	.	4F\	p	4r	.	4f/	.
=17	=17	=17	=17	=17	=17	=17	=17	=17	=17	=17	=17
!	!	!	!	!	!	!	!	!	!	!	!LO:DY:rj:t=p&colon;
2.B-/	.	2.f/	.	4BB-/	.	(8d\L	.	2.d/	.	(8dd\L	p
.	.	.	.	.	.	8e-\	.	.	.	8ee-\	.
.	.	.	.	4D/	.	8d\	.	.	.	8dd\	.
.	.	.	.	.	.	8c\	.	.	.	8cc\	.
.	.	.	.	4BB-/	.	8B-\	.	.	.	8b-\	.
.	.	.	.	.	.	8c\J)	.	.	.	8cc\J)	.
=18	=18	=18	=18	=18	=18	=18	=18	=18	=18	=18	=18
2.F/	.	2.f/	.	4F\	.	8c\L	.	2.c/	.	8b-\L	.
.	.	.	.	.	.	8A\J	.	.	.	8a\J	.
.	.	.	.	4C\	.	4A\	.	.	.	4a/	.
.	.	.	.	4FF/	.	4F\	.	.	.	4f/	.
=19	=19	=19	=19	=19	=19	=19	=19	=19	=19	=19	=19
2.B-/	.	2.f/	.	4BB-/	.	(8B-\L	.	2.d/	.	(8b-\L	.
.	.	.	.	.	.	8A\	.	.	.	8a\	.
.	.	.	.	4D/	.	8B-\	.	.	.	8b-\	.
.	.	.	.	.	.	8c\	.	.	.	8cc\	.
.	.	.	.	4BB-/	.	8d\)	.	.	.	8dd\	.
.	.	.	.	.	.	8e-\J	.	.	.	8ee-\J)	.
=20	=20	=20	=20	=20	=20	=20	=20	=20	=20	=20	=20
4F/	.	4f/	.	4F\	.	8d\L	.	4A/	.	(8dd\L	.
.	.	.	.	.	.	8c\	.	.	.	8cc\	.
4F/	.	4f/	.	4C\	.	8c\	.	4A/	.	8cc\	.
.	.	.	.	.	.	8Bn\J	.	.	.	8bX\J)	.
4F/	.	4f/	.	4FF/	.	4c\	.	4A/	.	4cc\	.
=21	=21	=21	=21	=21	=21	=21	=21	=21	=21	=21	=21
2.B-/	.	2.f/	.	4BB-/	.	8d\L	.	2.d/	.	(8dd\L	.
.	.	.	.	.	.	8e-\	.	.	.	8ee-\	.
.	.	.	.	4D/	.	8d\	.	.	.	8dd\	.
.	.	.	.	.	.	8c\	.	.	.	8cc\	.
.	.	.	.	4BB-/	.	8B-\	.	.	.	8b-\	.
.	.	.	.	.	.	8c\J	.	.	.	8cc\J)	.
=22	=22	=22	=22	=22	=22	=22	=22	=22	=22	=22	=22
2.F/	.	2.f/	.	4F\	.	8B-\L	.	2.c/	.	8b-\L	.
.	.	.	.	.	.	8A\J	.	.	.	8a\J	.
.	.	.	.	4C/	.	4A\	.	.	.	4a\	.
.	.	.	.	4FF/	.	4F\	.	.	.	4f/	.
=23	=23	=23	=23	=23	=23	=23	=23	=23	=23	=23	=23
2.F/	.	2.f/	.	4BB-/	.	8B-\L	.	4d/	.	(8b-\L	.
.	.	.	.	.	.	8d\	.	.	.	8dd\	.
.	.	.	.	4C/	.	8e-\	.	2c/	.	8ee-\	.
.	.	.	.	.	.	8c\	.	.	.	8cc\J	.
.	.	.	.	4F\	.	8B-\	.	.	.	8b-\L	.
.	.	.	.	.	.	8A\J	.	.	.	8a\J)	.
!	!	!	!	!	!	!LO:LB:g=original	!	!	!	!	!
=24	=24	=24	=24	=24	=24	=24	=24	=24	=24	=24	=24
4F/	.	4f/	.	4B-\	.	4c\	.	4c/	.	4dd\	.
4B-/	.	4f/	.	4BB-/	.	4B-\	.	4d/	.	4b-\	.
!	!	!	!	!	!	!	!	!	!	!LO:LB:g=original	!
=:|!|:	=:|!|:	=:|!|:	=:|!|:	=:|!|:	=:|!|:	=:|!|:	=:|!|:	=:|!|:	=:|!|:	=:|!|:	=:|!|:
*>D	*>D	*>D	*>D	*>D	*>D	*>D	*>D	*>D	*>D	*>D	*>D
4r	.	4r	.	4r	.	4r	.	8b-\L	.	8dd\L	.
.	.	.	.	.	.	.	.	8cc\J	.	8ee-\J	.
=25	=25	=25	=25	=25	=25	=25	=25	=25	=25	=25	=25
!	!	!	!	!	!	!LO:N:vis=0	!	!	!	!	!
2d/	.	2b-\	.	4B-\	.	1.r	.	8dd\L	.	8ff\L	.
.	.	.	.	.	.	.	.	8ee-\	.	(8gg\	.
.	.	.	.	4r	.	.	.	8dd\	.	8ff\	.
.	.	.	.	.	.	.	.	8cc\	.	8ee-\	.
4r	.	4r	.	4BB-/	.	.	.	8b-\	.	8dd\	.
.	.	.	.	.	.	.	.	8gg\J	.	8gg\J)	.
!	!	!	!	!LO:LB:g=original	!	!	!	!	!	!	!
=26	=26	=26	=26	=26	=26	=26	=26	=26	=26	=26	=26
2f/	.	2cc\	.	4F\	.	.	.	8ee-\L	.	(8ff\L	.
.	.	.	.	.	.	.	.	8dd\J	.	8ee-\J	.
.	.	.	.	4FF/	.	.	.	4cc\	.	4ee-\)	.
4r	.	4r	.	4r	.	.	.	8a\L	.	8cc\L	.
.	.	.	.	.	.	.	.	8b-\J	.	8dd\J	.
=27	=27	=27	=27	=27	=27	=27	=27	=27	=27	=27	=27
2f/	.	2cc\	.	4F\	.	2.r	.	8cc\L	.	(8ee-\L	.
.	.	.	.	.	.	.	.	8dd\	.	8ff\	.
.	.	.	.	4FF/	.	.	.	8cc\	.	8ee-\	.
.	.	.	.	.	.	.	.	8b-\	.	8dd\	.
4r	.	4r	.	4r	.	.	.	8a\	.	8cc\	.
.	.	.	.	.	.	.	.	8dd\J	.	8ff\J)	.
!	!	!	!	!	!	!	!	!LO:LB:g=original	!	!	!
=28	=28	=28	=28	=28	=28	=28	=28	=28	=28	=28	=28
*2\right	*	*	*	*	*	*	*	*	*	*	*
2b-\	.	2dd\	.	4B-\	.	4r	.	8cc\L	.	8ee-\L	.
.	.	.	.	.	.	.	.	8b-\J	.	8dd\J	.
.	.	.	.	4BB-/	.	4r	.	4b-\	.	4dd\	.
4r	.	4r	.	4r	.	4F\	.	4r	.	4f/	.
=29	=29	=29	=29	=29	=29	=29	=29	=29	=29	=29	=29
2.B-/	.	2.b-\	.	4BB-/	.	(8d\L	.	2.d/	.	8dd\L	.
.	.	.	.	.	.	8e-\	.	.	.	(8ee-\	.
.	.	.	.	4D/	.	8d\	.	.	.	8dd\	.
.	.	.	.	.	.	8c\	.	.	.	8cc\	.
.	.	.	.	4BB-/	.	8B-\	.	.	.	8b-\	.
.	.	.	.	.	.	8c\J)	.	.	.	8cc\J)	.
=30	=30	=30	=30	=30	=30	=30	=30	=30	=30	=30	=30
2.F/	.	2.f/	.	4F\	.	8B-\L	.	2.c/	.	8b-\L	.
.	.	.	.	.	.	8A\J	.	.	.	8a\J	.
.	.	.	.	4C/	.	4A\	.	.	.	4a\	.
.	.	.	.	4FF/	.	4F\	.	.	.	4f/	.
=31	=31	=31	=31	=31	=31	=31	=31	=31	=31	=31	=31
2.F/	.	2f/	.	4BB-/	.	4d\	.	4d/	.	4dd\	.
.	.	.	.	4F\	.	8f\L	.	2c/	.	(8ff\L	.
.	.	.	.	.	.	8e-\	.	.	.	8ee-\	.
.	.	4f/	.	4FF/	.	8d\	.	.	.	8dd\	.
!	!	!	!	!	!	!LO:TX:a:t=c	!	!	!	!	!
.	.	.	.	.	.	8e-\J	.	.	.	8cc\J)	.
=32	=32	=32	=32	=32	=32	=32	=32	=32	=32	=32	=32
4F/	.	4f/	.	4BB-/	.	4c\	.	4c/	.	4cc\	.
!LO:TX:b:i:t=Menuet\nDa\nCapo	!	!LO:TX:b:i:t=Menuett.\nDa\nCapo.	!	!LO:TX:b:i:t=Menuett \nDa Capo.	!	!LO:TX:b:i:t=Menuett Da Capo.	!	!LO:TX:b:i:t=Menuett Da Capo.	!	!LO:TX:b:i:t=Menuett Da Capo	!
4B-/	.	4f/	.	4BBB-/	.	4B-\	.	4d/	.	4b-\	.
==:|!	==:|!	==:|!	==:|!	==:|!	==:|!	==:|!	==:|!	==:|!	==:|!	==:|!	==:|!
*-	*-	*-	*-	*-	*-	*-	*-	*-	*-	*-	*-
!!!system-decoration: [(g1)][(g2)]
!!!ENC: Krzysztof Stępień
!!!END: 2021-06-17
!!!ENC: Marta Lawrence
!!!END: 2021-06-26
